src/img/standarts-list__gmo.svg

<svg
 xmlns="http://www.w3.org/2000/svg"
 xmlns:xlink="http://www.w3.org/1999/xlink"
 width="70px" height="79px">
<path fill-rule="evenodd"  fill="rgb(132, 171, 49)"
 d="M69.569,30.039 C63.319,36.037 58.181,36.507 51.673,35.236 C50.436,34.950 50.837,33.108 52.074,33.352 C58.640,34.744 63.385,33.432 68.209,28.675 L68.209,28.676 C69.107,27.788 70.451,29.146 69.569,30.039 ZM63.781,28.782 L57.296,22.291 C56.057,23.577 54.582,24.575 52.943,25.241 L57.774,30.076 C58.388,30.647 57.916,31.748 57.094,31.719 C56.848,31.719 56.601,31.625 56.414,31.437 L50.866,25.885 C49.113,26.273 47.232,26.278 45.476,25.901 L45.474,25.902 C45.886,28.573 46.730,31.243 47.553,33.838 C49.710,40.644 51.939,47.682 45.707,53.920 C41.904,57.727 37.533,58.659 34.162,58.659 C32.343,58.659 30.814,58.388 29.825,58.149 C29.309,58.024 28.989,57.504 29.114,56.987 C29.240,56.470 29.759,56.150 30.276,56.276 C33.393,57.027 39.367,57.542 44.347,52.557 C49.753,47.146 47.883,41.249 45.720,34.419 C44.783,31.464 43.818,28.416 43.449,25.289 C35.233,22.222 32.707,11.064 38.814,4.749 C49.830,-6.563 67.353,7.700 58.529,20.802 L65.143,27.421 C65.518,27.796 65.518,28.407 65.143,28.782 C64.766,29.158 64.156,29.158 63.781,28.782 ZM58.951,13.434 C58.978,7.174 53.541,2.137 47.309,2.645 C39.698,3.051 34.850,11.967 38.625,18.583 L38.626,18.583 C39.929,20.992 42.070,22.803 44.653,23.681 C51.519,26.124 59.047,20.734 58.951,13.434 ZM52.475,19.138 L52.478,19.138 L48.140,14.795 L43.802,19.138 C43.425,19.514 42.815,19.514 42.440,19.138 C42.065,18.763 42.065,18.153 42.440,17.778 L46.778,13.434 L42.438,9.089 C41.553,8.192 42.910,6.842 43.802,7.730 C43.919,7.848 47.893,11.826 48.138,12.071 L52.476,7.728 C52.852,7.352 53.461,7.352 53.836,7.728 C54.212,8.105 54.212,8.715 53.836,9.091 L49.498,13.434 L53.836,17.778 C54.722,18.672 53.368,20.024 52.475,19.138 ZM34.144,53.727 L25.766,45.342 C25.391,44.966 25.391,44.357 25.766,43.981 C26.143,43.605 26.752,43.605 27.127,43.981 L35.505,52.366 C35.881,52.741 35.881,53.351 35.505,53.727 C35.129,54.103 34.519,54.103 34.144,53.727 ZM36.990,34.109 L45.367,42.493 C45.981,43.066 45.508,44.164 44.687,44.136 L44.685,44.136 C44.440,44.136 44.193,44.042 44.005,43.854 L35.629,35.470 C34.742,34.575 36.100,33.225 36.990,34.109 ZM42.111,51.432 L42.110,51.432 C41.864,51.432 41.617,51.337 41.430,51.149 L28.340,38.048 C27.965,37.672 27.965,37.063 28.340,36.687 C28.717,36.311 29.326,36.311 29.701,36.687 L42.791,49.788 C43.407,50.361 42.932,51.459 42.111,51.432 ZM40.596,29.764 C41.826,30.078 41.367,31.923 40.145,31.638 C37.029,30.886 31.058,30.371 26.075,35.358 L26.074,35.357 C14.695,46.543 37.276,65.120 20.621,78.625 C19.797,78.659 19.330,77.547 19.941,76.982 C27.421,69.494 25.094,61.659 22.844,54.083 C20.793,47.180 18.672,40.042 24.714,33.995 C30.572,28.133 37.772,29.084 40.596,29.764 ZM18.345,54.558 L18.347,54.558 C11.783,53.167 7.036,54.482 2.213,59.239 C1.836,59.615 1.227,59.615 0.852,59.239 C0.476,58.862 0.476,58.252 0.852,57.876 C7.437,51.287 13.874,51.634 18.746,52.674 C19.984,52.960 19.580,54.804 18.345,54.558 ZM12.881,56.878 C13.258,56.502 13.868,56.502 14.243,56.878 L22.619,65.261 C22.995,65.637 22.995,66.247 22.619,66.622 C22.242,66.998 21.633,66.998 21.258,66.622 L12.881,58.239 C12.506,57.863 12.506,57.253 12.881,56.878 ZM6.875,59.534 L19.965,72.635 C20.854,73.531 19.494,74.881 18.604,73.996 L5.514,60.895 C5.138,60.520 5.138,59.910 5.514,59.534 C5.891,59.159 6.500,59.159 6.875,59.534 Z"/>
</svg>

<svg xmlns="http://www.w3.org/2000/svg" width="70" height="79"><path fill-rule="evenodd" fill="#84AB31" d="M69.57 30.04c-6.25 6-11.39 6.47-17.9 5.2-1.23-.29-.83-2.13.4-1.89 6.57 1.4 11.31.08 16.14-4.68.9-.88 2.24.48 1.36 1.37Zm-5.79-1.26-6.48-6.49a12.63 12.63 0 0 1-4.36 2.95l4.83 4.84c.62.57.15 1.67-.68 1.64a1 1 0 0 1-.68-.28l-5.54-5.55c-1.76.38-3.64.39-5.4.01a53.9 53.9 0 0 0 2.08 7.94c2.16 6.8 4.39 13.84-1.84 20.08a15.92 15.92 0 0 1-11.55 4.74c-1.82 0-3.35-.27-4.33-.51a.96.96 0 0 1 .45-1.87c3.11.75 9.09 1.26 14.07-3.72 5.4-5.41 3.53-11.31 1.37-18.14-.94-2.96-1.9-6-2.27-9.13-8.22-3.07-10.74-14.23-4.64-20.54 11.02-11.31 28.54 2.95 19.72 16.05l6.61 6.62a.96.96 0 0 1-1.36 1.36Zm-4.83-15.35a10.84 10.84 0 0 0-11.64-10.79c-7.61.41-12.46 9.33-8.69 15.94a10.8 10.8 0 0 0 6.03 5.1c6.87 2.44 14.4-2.95 14.3-10.25Zm-6.48 5.7-4.33-4.33-4.34 4.34a.96.96 0 0 1-1.36-1.36l4.34-4.35-4.34-4.34c-.89-.9.47-2.25 1.36-1.36l4.34 4.34 4.34-4.34a.96.96 0 1 1 1.36 1.36l-4.34 4.34 4.34 4.35c.88.9-.47 2.24-1.37 1.36Zm-18.33 34.6-8.37-8.39a.96.96 0 0 1 1.36-1.36l8.38 8.39a.96.96 0 1 1-1.37 1.36Zm2.85-19.62 8.38 8.38c.61.58.14 1.67-.68 1.65-.25 0-.5-.1-.68-.29l-8.38-8.38c-.89-.9.47-2.24 1.36-1.36Zm5.12 17.32c-.25 0-.5-.1-.68-.28l-13.09-13.1a.96.96 0 0 1 1.36-1.36l13.1 13.1c.6.57.13 1.67-.69 1.64Zm-1.51-21.67c1.23.32.77 2.16-.45 1.88-3.12-.75-9.1-1.27-14.07 3.72-11.38 11.18 11.2 29.76-5.46 43.27-.82.03-1.29-1.08-.68-1.65 7.48-7.49 5.15-15.32 2.9-22.9-2.05-6.9-4.17-14.04 1.87-20.09 5.86-5.86 13.06-4.9 15.89-4.23Zm-22.26 24.8c-6.56-1.4-11.3-.08-16.13 4.68a.96.96 0 1 1-1.36-1.36c6.59-6.6 13.02-6.25 17.9-5.2 1.23.28.83 2.12-.4 1.88Zm-5.46 2.32a.96.96 0 0 1 1.36 0l8.38 8.38a.96.96 0 1 1-1.36 1.36l-8.38-8.38a.96.96 0 0 1 0-1.36Zm-6 2.65 13.09 13.1c.88.9-.48 2.25-1.37 1.37l-13.09-13.1a.96.96 0 1 1 1.37-1.37Z"/></svg>
